svgs/dimmer.svg

<svg width="192" height="192" viewBox="0 0 192 192" fill="none" xmlns="http://www.w3.org/2000/svg">
<path d="M84 165C93.1652 175.727 98.3962 175.606 108 165" stroke="black" stroke-width="6" stroke-linecap="round" stroke-linejoin="round"/>
<path d="M81 140V159H110V140" stroke="black" stroke-width="12" stroke-linecap="round" stroke-linejoin="round"/>
<path d="M95.5 23C70.9233 23 51 42.8028 51 67.2308C51 91.6588 70.373 98.4853 71.7667 120.897C72.0525 125.495 69.6082 128.616 71.7667 132.692C73.1402 135.286 77.1067 138 77.1067 138H112.707C112.707 138 116.673 135.286 118.047 132.692C120.205 128.616 117.749 125.494 118.047 120.897C119.512 98.32 140 91.6588 140 67.2308C140 42.8028 120.077 23 95.5 23Z" stroke="black" stroke-width="14" stroke-linecap="round" stroke-linejoin="round"/>
</svg>

<svg xmlns="http://www.w3.org/2000/svg" width="192" height="192" fill="none" viewBox="0 0 192 192"><path stroke="#000" stroke-linecap="round" stroke-linejoin="round" stroke-width="6" d="M84 165c9.165 10.727 14.396 10.606 24 0"/><path stroke="#000" stroke-linecap="round" stroke-linejoin="round" stroke-width="12" d="M81 140v19h29v-19"/><path stroke="#000" stroke-linecap="round" stroke-linejoin="round" stroke-width="14" d="M95.5 23C70.923 23 51 42.803 51 67.23c0 24.429 19.373 31.255 20.767 53.667.285 4.598-2.159 7.719 0 11.795 1.373 2.594 5.34 5.308 5.34 5.308h35.6s3.966-2.714 5.34-5.308c2.158-4.076-.298-7.198 0-11.795C119.512 98.32 140 91.659 140 67.231 140 42.803 120.077 23 95.5 23Z"/></svg>
